X:189
T: Nesselkranz
N: A0222
O: Europa, Mitteleuropa, Deutschland
N: Joh. Ott III 1544 No. 24.
R: Romanze, Ballade, Lied
M: 3/2
L: 1/2
K: G
G | BBc | d2d | d2d | c2
=f | eed | c2
A | B2c | d2d | d2d | A2
c | BA2 | G2

